static/fa/svgs/solid/delete-left.svg

<svg xmlns="http://www.w3.org/2000/svg" viewBox="0 0 576 512"><!--! Font Awesome Free 6.1.1 by @fontawesome - https://fontawesome.com License - https://fontawesome.com/license/free (Icons: CC BY 4.0, Fonts: SIL OFL 1.1, Code: MIT License) Copyright 2022 Fonticons, Inc.--><path d="M576 384c0 35.3-28.7 64-64 64H205.3c-17 0-33.3-6.7-45.3-18.7L9.372 278.6C3.371 272.6 0 264.5 0 256c0-8.5 3.372-16.6 9.372-22.6L160 82.75C172 70.74 188.3 64 205.3 64H512c35.3 0 64 28.65 64 64v256zM271 208.1l47.1 47.9-47.1 47c-9.3 9.4-9.3 24.6 0 33.1 9.4 10.2 24.6 10.2 33.1 0l47.9-46.2 47 46.2c9.4 10.2 24.6 10.2 33.1 0 10.2-8.5 10.2-23.7 0-33.1l-46.2-47 46.2-47.9c10.2-8.5 10.2-23.7 0-33.1-8.5-9.3-23.7-9.3-33.1 0l-47 47.1-47.9-47.1c-8.5-9.3-23.7-9.3-33.1 0-9.3 9.4-9.3 24.6 0 33.1z"/></svg>

<svg xmlns="http://www.w3.org/2000/svg" viewBox="0 0 576 512"><!--! Font Awesome Free 6.1.1 by @fontawesome - https://fontawesome.com License - https://fontawesome.com/license/free (Icons: CC BY 4.0, Fonts: SIL OFL 1.1, Code: MIT License) Copyright 2022 Fonticons, Inc. --><path d="M576 384C576 419.3 547.3 448 512 448H205.3C188.3 448 172 441.3 160 429.3L9.372 278.6C3.371 272.6 0 264.5 0 256C0 247.5 3.372 239.4 9.372 233.4L160 82.75C172 70.74 188.3 64 205.3 64H512C547.3 64 576 92.65 576 128V384zM271 208.1L318.1 256L271 303C261.7 312.4 261.7 327.6 271 336.1C280.4 346.3 295.6 346.3 304.1 336.1L352 289.9L399 336.1C408.4 346.3 423.6 346.3 432.1 336.1C442.3 327.6 442.3 312.4 432.1 303L385.9 256L432.1 208.1C442.3 199.6 442.3 184.4 432.1 175C423.6 165.7 408.4 165.7 399 175L352 222.1L304.1 175C295.6 165.7 280.4 165.7 271 175C261.7 184.4 261.7 199.6 271 208.1V208.1z"/></svg>
